X: 621
M: C|
L: 1/8
K: D
V: 1
z |\
|: a |\
fd-df g>fea | fddf a>baf |\
g>af>g Te>def | d>edF A2-A :|
|: B |\
|: (g |\
g>af>g Te>def | dedF A2-A :|
V: 2 clef=bass middle=d
z |\
d2d2 e2e2 | d2d2 d2f2 |\
g2f2 e2e2 | d2A2 D2D :|\
|: z |\
d2d2 e2e2 | d2d2 d2d2 |
g2f2 e2e2 | d2A2 D2D :|\
|: z |\
d2d2 e2e2 |d2d2 d2d2 |\
d2d2 B2B2 | d2A2 D2D :|
|: z |\
d2d2 e2e2 | d2d2 d2d2 |\
g2f2 e2e2 | d2A2 D2D :|

